!!!!SEGMENT: Snf0231-Nunc_Deus_ad_requiem--Stuttgart_36.krn
!!!id: Snf0231
!!!AGN: Motet
!!!SCT: Edwards, Gasch, Tröster (2022)
!!!voices: 4
!!!COM: Ludwig Senfl
!!!OTL: Nunc, Deus, ad requiem
**kern	**text	**kern	**text	**kern	**text	**kern	**text
*part4	*part4	*part3	*part3	*part2	*part2	*part1	*part1
*staff4	*staff4	*staff3	*staff3	*staff2	*staff2	*staff1	*staff1
*I"Bassus	*	*I"Tenor	*	*I"Altus	*	*I"Superius	*
*I'B	*	*I'T	*	*I'A	*	*I'S	*
*clefF4	*	*clefGv2	*	*clefG2	*	*clefG2	*
*k[b-]	*	*k[b-]	*	*k[b-]	*	*k[b-]	*
*F:	*	*F:	*	*F:	*	*F:	*
*M2/1	*	*M2/1	*	*M2/1	*	*M2/1	*
*met(C|)	*	*met(C|)	*	*met(C|)	*	*met(C|)	*
!!section: Prima pars: Nunc, Deus, ad requiem
!!!OMD: Prima pars: Nunc, Deus, ad requiem
=1	=1	=1	=1	=1	=1	=1	=1
0A	Nunc,	1A	Nunc,	0e	Nunc,	[0a	Nunc,
.	.	[1c	De-	.	.	.	.
=2	=2	=2	=2	=2	=2	=2	=2
1F	De-	1c]	.	1f	De-	0a_	.
1F	-us,	1c	-us,	1f	-us,	.	.
=3	=3	=3	=3	=3	=3	=3	=3
1D	ad	0d	ad	1f	ad	0a]	.
1D	re-	.	.	1f	re-	.	.
=4	=4	=4	=4	=4	=4	=4	=4
0C	-qui-	0e	re-	1g	-qui-	1cc	De-
.	.	.	.	1a	.	1cc	-us,
=5	=5	=5	=5	=5	=5	=5	=5
1.BB-y	-em,	[0f	-qui-	0b-y	-em,	1dd	ad
.	.	.	.	.	.	[1dd	re-
2C	ser-	.	.	.	.	.	.
=6	=6	=6	=6	=6	=6	=6	=6
2D	-vum	0f]	.	[0a	ser-	1dd]	.
2E	fi-	.	.	.	.	.	.
2F	-nem-	.	.	.	.	1cc	-qui-
2G	.	.	.	.	.	.	.
=7	=7	=7	=7	=7	=7	=7	=7
2A	-que	0e	-em,	1a]	.	[0cc	-em,
2B-y	la-	.	.	.	.	.	.
[1c	-bo-	.	.	[1g	-vum	.	.
=8	=8	=8	=8	=8	=8	=8	=8
2c]	.	1r	.	1g]	.	0cc]	.
2B-y	.	.	.	.	.	.	.
2A	.	1e	ser-	[1cc	.	.	.
2G	.	.	.	.	.	.	.
=9	=9	=9	=9	=9	=9	=9	=9
1.F	.	1.f	-vum	2cc]	.	0r	.
.	.	.	.	2b-y	fi-	.	.
.	.	.	.	2a	-nem-	.	.
2E	.	2c	fi-	2g	-que	.	.
=10	=10	=10	=10	=10	=10	=10	=10
1D	.	2d	-nem-	1f	la-	0r	.
.	.	1A	-que	.	.	.	.
1C	.	.	.	1e	.	.	.
.	.	[2G	la-	.	.	.	.
=11	=11	=11	=11	=11	=11	=11	=11
0BB-y	.	2G]	.	0d	-bo-	1r	.
.	.	1F	-bo-	.	.	.	.
.	.	.	.	.	.	1ff	ser-
.	.	4E	.	.	.	.	.
.	.	4D	.	.	.	.	.
=12	=12	=12	=12	=12	=12	=12	=12
0AA	-rum,	0A	.	2c	-rum,	1ff	-vum
.	.	.	.	2.cc	[la-	.	.
.	.	.	.	.	.	1ee	fi-
.	.	.	.	4b-y	.	.	.
.	.	.	.	[2a	-bo-	.	.
=13	=13	=13	=13	=13	=13	=13	=13
0r	.	1B-y	.	2a]	.	1dd	-nem-
.	.	.	.	2g	-rum,]	.	.
.	.	[1F	.	[1a	la-	2cc	-que
.	.	.	.	.	.	[2cc	la-
=14	=14	=14	=14	=14	=14	=14	=14
0r	.	2F]	.	2a]	.	2cc]	.
.	.	2G	.	2g	.	2b-y	.
.	.	2.A	-rum,	2f	-bo-	1a	.
.	.	.	.	4e	.	.	.
.	.	4B-y	.	4d	.	.	.
=15	=15	=15	=15	=15	=15	=15	=15
2r	.	1c	.	1e	.	1g	-bo-
2C	la-	.	.	.	.	.	.
2D	-bo-	1r	.	2d	-rum,	1b-y	.
2E	.	.	.	2g	la-	.	.
=16	=16	=16	=16	=16	=16	=16	=16
2F	.	1r	.	2f	-bo-	2a	.
2G	.	.	.	4e	.	1g	.
.	.	.	.	4d	.	.	.
1A	.	2r	.	2.c	.	.	.
.	.	2c	la-	.	.	2f#i	.
.	.	.	.	4d	.	.	.
=17	=17	=17	=17	=17	=17	=17	=17
1G	-rum	2c	-bo-	1e	-rum	0g	-rum,
.	.	4B-y	.	.	.	.	.
.	.	4A	.	.	.	.	.
2r	.	1B-y	.	1d	.	.	.
2G	cor-	.	.	.	.	.	.
=18	=18	=18	=18	=18	=18	=18	=18
1.A	.	1.c	.	0r	.	0e	la-
2G	-po-	2B-y	.	.	.	.	.
=19	=19	=19	=19	=19	=19	=19	=19
2F	-ris	2A	.	1r	.	2f	-bo-
2E	ex-	2G	.	.	.	1g	.
1D	-u-	1d	.	1A	cor-	.	.
.	.	.	.	.	.	2f#i	.
=20	=20	=20	=20	=20	=20	=20	=20
1C	-tum,	1G	-rum	1e	.	0g	-rum
2r	.	1c	.	1e	-po-	.	.
2c	cor-	.	.	.	.	.	.
=21	=21	=21	=21	=21	=21	=21	=21
1.d	.	1.B-y	cor-	1.f	-ris	0r	.
2c	-po-	2c	-po-	2e	ex-	.	.
=22	=22	=22	=22	=22	=22	=22	=22
2B-y	-ris	2d	-ris	1f	-u-	0r	.
2A	ex-	1f	ex-	.	.	.	.
1G	-u-	.	.	1g	.	.	.
.	.	2e	.	.	.	.	.
=23	=23	=23	=23	=23	=23	=23	=23
1F	-tum	[0f	-u-	[0a	-tum,	1.cc	cor-
[1F	vin-	.	.	.	.	.	.
.	.	.	.	.	.	2cc	-po-
=24	=24	=24	=24	=24	=24	=24	=24
2F]	.	1f]	.	1a]	.	1cc	-ris
2G	.	.	.	.	.	.	.
1A	.	1e	.	2r	.	1cc	ex-
.	.	.	.	[2a	ex-	.	.
=25	=25	=25	=25	=25	=25	=25	=25
0D	-clis,	0d	-tum	2a]	.	1ff	-u-
.	.	.	.	2b-y	-u-	.	.
.	.	.	.	2.a	-tum	1ff	-tum
.	.	.	.	8gL	.	.	.
.	.	.	.	8fJ	.	.	.
=26	=26	=26	=26	=26	=26	=26	=26
[0A	.	0c	.	1.cc	vin-	[0ee	.
.	.	.	.	2a	.	.	.
=27	=27	=27	=27	=27	=27	=27	=27
0A]	.	1r	.	[0a	-clis,	0ee_	.
.	.	[1c	vin-	.	.	.	.
=28	=28	=28	=28	=28	=28	=28	=28
1r	.	2c]	.	0a]	.	0ee]	.
.	.	2A	.	.	.	.	.
[1c	vin-	[1A	-clis,	.	.	.	.
=29	=29	=29	=29	=29	=29	=29	=29
2c]	.	1A]	.	1r	.	1r	.
2A	.	.	.	.	.	.	.
1A	-clis	1c	[vin-	1a	vin-	1ee	vin-
=30	=30	=30	=30	=30	=30	=30	=30
0G	di-	[0d	-clis]	[0b-y	-clis	0gg	-clis
=31	=31	=31	=31	=31	=31	=31	=31
1B-y	-mit-	1d]	.	1b-]	.	1.ff	di-
1A	.	1r	.	1cc	di-	.	.
.	.	.	.	.	.	2ee	.
=32	=32	=32	=32	=32	=32	=32	=32
1B-y	.	1r	.	2f	-mit-	1dd	-mit-
.	.	.	.	1f	-te	.	.
1A	.	1c	di-	.	.	1cc	-te
.	.	.	.	2e	be-	.	.
=33	=33	=33	=33	=33	=33	=33	=33
0D	-te	0d	-mit-	0f	-ni-	1b-y	be-
.	.	.	.	.	.	[1a	-ni-
=34	=34	=34	=34	=34	=34	=34	=34
0r	.	0c	-te	0e	.	2a]	.
.	.	.	.	.	.	2g	.
.	.	.	.	.	.	[1g	.
=35	=35	=35	=35	=35	=35	=35	=35
0r	.	0A	.	[0c	.	2g]	.
.	.	.	.	.	.	4f#i	.
.	.	.	.	.	.	4e	.
.	.	.	.	.	.	2.f#i	.
.	.	.	.	.	.	4e	.
=36	=36	=36	=36	=36	=36	=36	=36
2r	.	1r	.	1c]	.	[0g	-gne
2.C	be-	.	.	.	.	.	.
.	.	2.G	be-	1e	.	.	.
4D	.	.	.	.	.	.	.
4E	.	.	.	.	.	.	.
4F	.	4A	.	.	.	.	.
=37	=37	=37	=37	=37	=37	=37	=37
2G	.	2B-y	.	2d	.	0g]	.
2C	-ni-	1c	-ni-	2c	.	.	.
1G	-gne,	.	.	1d	.	.	.
.	.	2B-y	.	.	.	.	.
=38	=38	=38	=38	=38	=38	=38	=38
2r	.	2c	-gne,	2c	-gne,	0r	.
2.G	[be-	2B-y	be-	2g	be-	.	.
.	.	2.d	-ni-	1b-y	-ni-	.	.
4A	.	.	.	.	.	.	.
4B-y	.	.	.	.	.	.	.
4c	.	4e	.	.	.	.	.
=39	=39	=39	=39	=39	=39	=39	=39
2d	.	2f	.	2a	.	0dd	pro-
2G	-ni-	1g	.	2g	.	.	.
1d	-gne]	.	.	1a	.	.	.
.	.	2f	.	.	.	.	.
=40	=40	=40	=40	=40	=40	=40	=40
1r	.	2g	-gne	2b-y	.	1dd	-mis-
.	.	2.f	.	2.a	-gne	.	.
1D	pro-	.	.	.	.	1dd	-sum,
.	.	4e	.	4g	.	.	.
.	.	4d	.	4f	.	.	.
.	.	4c	.	4e	.	.	.
=41	=41	=41	=41	=41	=41	=41	=41
1D	-mis-	1B-y	.	1d	.	1r	.
1D	-sum,	1A	pro-	2d	pro-	[1ff	qui-
.	.	.	.	[2f	-mis-	.	.
=42	=42	=42	=42	=42	=42	=42	=42
1r	.	1A	-mis-	2f]	.	1ff]	.
.	.	.	.	4e	.	.	.
.	.	.	.	4d	.	.	.
1F	qui-	1A	-sum,	1a	.	1ff	-a
=43	=43	=43	=43	=43	=43	=43	=43
1F	-a	1r	.	1a	-sum,	1cc	vi-
1F	vi-	[1c	qui-	1a	qui-	[1cc	-de-
=44	=44	=44	=44	=44	=44	=44	=44
0C	-de-	1c]	.	1e	-a	1cc]	.
.	.	1c	-a	2r	.	1cc	-runt,
.	.	.	.	2g	vi-	.	.
=45	=45	=45	=45	=45	=45	=45	=45
1C	-runt	2.G	vi-	1g	-de-	1r	.
.	.	4A	.	.	.	.	.
2r	.	2B-y	-de-	1d	-runt,	2r	.
[2D	me-	2A	-runt	.	.	[2ff	vi-
=46	=46	=46	=46	=46	=46	=46	=46
2D]	.	2F	me-	1r	.	2ff]	.
4C	.	2G	-a	.	.	4ee	.
4BB-y	.	.	.	.	.	4dd	.
2F	.	2A	lu-	2r	.	2cc	-de-
[2BB-y	-a	[2B-y	-mi-	2f	vi-	[2dd	.
=47	=47	=47	=47	=47	=47	=47	=47
2BB-]	.	2B-]	.	2d	-de-	2dd]	.
2C	.	4A	.	2e	.	4cc	.
.	.	4G	.	.	.	4b-y	.
1D	.	4F	-na	1f	-runt	1a	-runt
.	.	4G	.	.	.	.	.
.	.	4A	.	.	.	.	.
.	.	4B-y	.	.	.	.	.
=48	=48	=48	=48	=48	=48	=48	=48
1r	.	1c	.	1r	.	1g	me-
1G	lu-	1B-y	.	1d	me-	[1b-y	-a
=49	=49	=49	=49	=49	=49	=49	=49
1E	-mi-	1G	Chri-	1e-X	-a	1b-]	.
1F	-na	1A	.	1c	.	1a	lu-
=50	=50	=50	=50	=50	=50	=50	=50
1BB-y	Chri-	1B-y	.	2d	lu-	1f	-mi-
.	.	.	.	1d	-mi-	.	.
1E-i	.	1G	.	.	.	1g	-na
.	.	.	.	2c	-na	.	.
=51	=51	=51	=51	=51	=51	=51	=51
1D	-stum	0A	-stum	4d	Chri-	4f	Chri-
.	.	.	.	4e	.	4g	.
.	.	.	.	4f	.	4a	.
.	.	.	.	4g	.	4b-y	.
1r	.	.	.	2.a	.	4cc	.
.	.	.	.	.	.	4dd	.
.	.	.	.	.	.	2ee	.
.	.	.	.	4g	.	.	.
=52	=52	=52	=52	=52	=52	=52	=52
0r	.	1r	.	2f	.	2dd	.
.	.	.	.	2e	.	1cc	.
.	.	1G	cae-	2.d	-stum	.	.
.	.	.	.	.	.	2bnXi	.
.	.	.	.	8cL	.	.	.
.	.	.	.	8B-yJ	.	.	.
=53	=53	=53	=53	=53	=53	=53	=53
1r	.	2c	-li-	4A	.	0cc	-stum
.	.	.	.	4B-y	.	.	.
.	.	2c	-tus	4c	.	.	.
.	.	.	.	4d	.	.	.
2r	.	1c	au-	2e	.	.	.
2A	cae-	.	.	[2f	.	.	.
=54	=54	=54	=54	=54	=54	=54	=54
1B-y	-li-	1d	-xi-	2f]	.	1r	.
.	.	.	.	1g	cae-	.	.
1c	.	1e	-li-	.	.	1g	cae-
.	.	.	.	2e	.	.	.
=55	=55	=55	=55	=55	=55	=55	=55
1F	-tus	1f	-o	1a	-li-	2cc	-li-
.	.	.	.	.	.	2cc	-tus
2r	.	1e	.	2g	-tus	1cc	au-
2A	au-	.	.	2cc	au-	.	.
=56	=56	=56	=56	=56	=56	=56	=56
1B-y	-xi-	1r	.	2.b-y	-xi-	1dd	-xi-
.	.	.	.	4a	.	.	.
1c	-li-	2r	.	1g	-li-	1ee	-li-
.	.	2c	mis-	.	.	.	.
=57	=57	=57	=57	=57	=57	=57	=57
1F	-o,	2d	-sum	2f	-o	0ff	-o
.	.	2c	mor-	2cc	mi-	.	.
2r	.	2d	-ta-	2b-y	.	.	.
2D	au-	2f	-li-	2a	.	.	.
=58	=58	=58	=58	=58	=58	=58	=58
1E	-xi-	4e	-bus	4g	-sum	0r	.
.	.	4d	.	4f	.	.	.
.	.	4c	.	4e	.	.	.
.	.	4B-y	.	4d	.	.	.
1F	-li-	1A	.	1c	.	.	.
=59	=59	=59	=59	=59	=59	=59	=59
1BB-y	-o	1B-y	ae-	1d	mor-	1r	.
2r	.	1G	.	1g	.	1dd	mis-
[2B-y	mis-	.	.	.	.	.	.
=60	=60	=60	=60	=60	=60	=60	=60
2B-]	.	1d	-gris,	2.f	-ta-	0ff	-sum
4A	.	.	.	.	.	.	.
4G	.	.	.	4g	.	.	.
4F	.	1r	.	1a	.	.	.
4G	.	.	.	.	.	.	.
4A	.	.	.	.	.	.	.
4B-y	.	.	.	.	.	.	.
=61	=61	=61	=61	=61	=61	=61	=61
2c	.	1r	.	2g	.	1ee	mor-
2C	-sum	.	.	2e	.	.	.
4D	mor-	2r	.	1f	-li-	1dd	-ta-
4E	.	.	.	.	.	.	.
4F	.	[2A	ae-	.	.	.	.
4G	.	.	.	.	.	.	.
=62	=62	=62	=62	=62	=62	=62	=62
2.A	.	4A]	.	1e	-bus	1cc	-li-
.	.	4B-y	.	.	.	.	.
.	.	4c	.	.	.	.	.
4B-y	.	4d	.	.	.	.	.
2c	.	2e	.	1r	.	1a	-bus
[2d	-ta-	[2f	.	.	.	.	.
=63	=63	=63	=63	=63	=63	=63	=63
4d]	.	4f]	.	1r	.	0b-y	ae-
4c	.	4e	.	.	.	.	.
4B-y	.	4d	.	.	.	.	.
4A	.	4c	.	.	.	.	.
1G	-li-	1B-y	.	2.d	ae-	.	.
.	.	.	.	4e	.	.	.
=64	=64	=64	=64	=64	=64	=64	=64
1F	-bus	2c	-gris,	4f	.	2.a	.
.	.	.	.	4g	.	.	.
.	.	2f	ae-	2a	.	.	.
.	.	.	.	.	.	4b-y	.
1r	.	2e	.	2g	.	2cc	.
.	.	2d	.	2f	.	2dd	.
=65	=65	=65	=65	=65	=65	=65	=65
2r	.	1e	-gris,	2g	.	2dd	.
2A	ae-	.	.	2c	.	2cc	.
2G	.	2r	.	2B-y	.	1dd	.
2F	.	[2A	mor-	[2d	.	.	.
=66	=66	=66	=66	=66	=66	=66	=66
1E	.	4A]	.	2d]	.	1ee	.
.	.	4G	.	.	.	.	.
.	.	2G	-ta-	2c	.	.	.
1D	.	2A	-li-	1d	.	1ff	-gris,
.	.	[2d	-bus	.	.	.	.
=67	=67	=67	=67	=67	=67	=67	=67
0G	.	4d]	.	2B-y	.	1r	.
.	.	4c	.	.	.	.	.
.	.	4B-y	.	1b-y	-gris,	.	.
.	.	4A	.	.	.	.	.
.	.	1B-y	.	.	.	1dd	mor-
.	.	.	.	4a	.	.	.
.	.	.	.	4g	.	.	.
=68	=68	=68	=68	=68	=68	=68	=68
1F	-gris,	1c	ae-	1a	.	1ff	-ta-
2r	.	2A	.	2r	.	2ee	-li-
2G	[ae-	2B-y	.	2g	mor-	2dd	-bus
=69	=69	=69	=69	=69	=69	=69	=69
2A	.	2c	.	2e	-ta-	2cc	ae-
2D	.	1d	.	1a	-li-	2a	.
1G	-gris,]	.	.	.	.	1b-y	.
.	.	2G	.	2g	-bus	.	.
=70	=70	=70	=70	=70	=70	=70	=70
2r	.	2d	.	2f	ae-	2a	.
2c	mor-	2A	.	2e	.	1a	.
2d	-ta-	1B-y	.	1d	-gris,	.	.
2G	-li-	.	.	.	.	2g	.
=71	=71	=71	=71	=71	=71	=71	=71
1.c	-bus	1A	-gris,	2r	.	[0a	-gris,
.	.	.	.	1e	ae-	.	.
.	.	1e	mor-	.	.	.	.
2A	.	.	.	2c	.	.	.
=72	=72	=72	=72	=72	=72	=72	=72
2A	ae-	[0f	-ta-	2c	-gris,	0a]	.
2F	.	.	.	2A	.	.	.
2F	.	.	.	1A	mor-	.	.
2D	.	.	.	.	.	.	.
=73	=73	=73	=73	=73	=73	=73	=73
1D	.	1f]	.	1a	.	1r	.
1d	.	1d	-li-	1f	-ta-	1a	mor-
=74	=74	=74	=74	=74	=74	=74	=74
1c	.	1e	-bus	1g	-li-	1cc	-ta-
1F	.	[1f	ae-	1a	.	1cc	-li-
=75	=75	=75	=75	=75	=75	=75	=75
0B-y	.	0f]	.	0b-y	.	1dd	-bus
.	.	.	.	.	.	1dd	ae-
=76	=76	=76	=76	=76	=76	=76	=76
0F	.	1f	.	1a	-bus	[0ccl	-gris.
.	.	2c	.	[1a	ae-	.	.
.	.	[2f	.	.	.	.	.
=77	=77	=77	=77	=77	=77	=77	=77
0c	.	2f]	.	2a]	.	0cc_	.
.	.	4e	.	4g	.	.	.
.	.	4d	.	4f	.	.	.
.	.	[1e	.	1g	.	.	.
=78	=78	=78	=78	=78	=78	=78	=78
[0Al	-gris.	1e]	.	[0al	-gris.	0cc_	.
.	.	1f	.	.	.	.	.
=79	=79	=79	=79	=79	=79	=79	=79
00A]	.	00el	-gris.	00a]	.	00cc]	.
==	==	==	==	==	==	==	==
*-	*-	*-	*-	*-	*-	*-	*-
!!!system-decoration: [*]
!!!RDF**kern: i = editorial accidental
!!!RDF**kern: l = terminal long
!!!PTL: <i> New Senfl Edition: Motets for Four Voices (N-V) </i>
!!!PPR: Hollitzer Verlag
!!!PC#: Denkmäler der Tonkunst in Österreich 163.2
!!!PDT: 2022
!!!PED: Scott Lee Edwards, Stefan Gasch, and Sonja Tröster
!!!YEC: Copyright 2022 Denkmäler der Tonkunst in Österreich
!!!YEM: CC-BY-NC 4.0 (https://creativecommons.org/licenses/by-nc/4.0/legalcode)
!!!EED: Benjamin Ory
!!!EEV: 2024/2/11
!!!verovio: header true
!!!header-left: @{PTL}\n@{PED}, eds.\n@{PC#} (@{PDT})&nbsp;\n
!!!header-right:
!!!header-center:
